_includes/icons/ios-bus.svg

<svg fill="#666" height="50" viewBox="0 0 50 50" width="50" xmlns="http://www.w3.org/2000/svg"><path d="m12 0c-3.09375 0-5.355469.398438-6.90625 1.75-1.550781 1.351563-2.09375 3.480469-2.09375 6.25v4h-1c-1.09375 0-2 .90625-2 2v8c0 1.09375.90625 2 2 2h1v17c0 1.222656.382813 2.25 1 3.03125v2.96875c0 1.644531 1.355469 3 3 3h4c1.644531 0 3-1.355469 3-3v-1h22v1c0 1.644531 1.355469 3 3 3h4c1.644531 0 3-1.355469 3-3v-2.96875c.617188-.78125 1-1.808594 1-3.03125v-17h1c1.09375 0 2-.90625 2-2v-8c0-1.09375-.90625-2-2-2h-1v-3c0-2.644531-.210937-4.808594-1.28125-6.46875-1.070312-1.660156-3.03125-2.53125-5.71875-2.53125zm0 2h28c2.3125 0 3.351563.542969 4.03125 1.59375.679688 1.050781.96875 2.890625.96875 5.40625v32c0 1.386719-.398437 1.933594-1.21875 2.375-.820312.441406-2.195312.625-3.78125.625h-30c-1.585937 0-2.960937-.183594-3.78125-.625-.820312-.441406-1.21875-.988281-1.21875-2.375v-33c0-2.515625.457031-3.890625 1.40625-4.71875s2.6875-1.28125 5.59375-1.28125zm3 1c-1.09375 0-2 .90625-2 2v2c0 1.09375.90625 2 2 2h21c1.09375 0 2-.90625 2-2v-2c0-1.09375-.90625-2-2-2zm0 2h21v2h-21zm-4 5c-1.167969 0-2.234375.296875-2.96875 1.03125s-1.03125 1.800781-1.03125 2.96875v12c0 1.167969.296875 2.234375 1.03125 2.96875s1.800781 1.03125 2.96875 1.03125l28-.0625c.816406 0 1.695313-.3125 2.5-.9375.804688-.625 1.5-1.675781 1.5-3v-12c0-1.167969-.296875-2.234375-1.03125-2.96875s-1.800781-1.03125-2.96875-1.03125zm0 2h28c.832031 0 1.265625.203125 1.53125.46875s.46875.699219.46875 1.53125v12c0 .675781-.285156 1.070313-.71875 1.40625-.433594.335938-1.050781.53125-1.28125.53125l-28 .0625c-.832031 0-1.265625-.203125-1.53125-.46875s-.46875-.699219-.46875-1.53125v-12c0-.832031.203125-1.265625.46875-1.53125s.699219-.46875 1.53125-.46875zm-9 2h1v8h-1zm45 0h1v8h-1zm-35.5 19c-2.472656 0-4.5 2.027344-4.5 4.5s2.027344 4.5 4.5 4.5 4.5-2.027344 4.5-4.5-2.027344-4.5-4.5-4.5zm27 0c-2.472656 0-4.5 2.027344-4.5 4.5s2.027344 4.5 4.5 4.5 4.5-2.027344 4.5-4.5-2.027344-4.5-4.5-4.5zm-27 2c1.390625 0 2.5 1.109375 2.5 2.5s-1.109375 2.5-2.5 2.5-2.5-1.109375-2.5-2.5 1.109375-2.5 2.5-2.5zm27 0c1.390625 0 2.5 1.109375 2.5 2.5s-1.109375 2.5-2.5 2.5-2.5-1.109375-2.5-2.5 1.109375-2.5 2.5-2.5zm-32.5 10.4375c1.199219.453125 2.566406.5625 4 .5625h2v1c0 .5625-.4375 1-1 1h-4c-.5625 0-1-.4375-1-1zm38 0v1.5625c0 .5625-.4375 1-1 1h-4c-.5625 0-1-.4375-1-1v-1h2c1.433594 0 2.800781-.109375 4-.5625z"/></svg>

<svg xmlns="http://www.w3.org/2000/svg" viewBox="0 0 50 50" width="50" height="50" fill="#666"><path d="M 12 0 C 8.90625 0 6.644531 0.398438 5.09375 1.75 C 3.542969 3.101563 3 5.230469 3 8 L 3 12 L 2 12 C 0.90625 12 0 12.90625 0 14 L 0 22 C 0 23.09375 0.90625 24 2 24 L 3 24 L 3 41 C 3 42.222656 3.382813 43.25 4 44.03125 L 4 47 C 4 48.644531 5.355469 50 7 50 L 11 50 C 12.644531 50 14 48.644531 14 47 L 14 46 L 36 46 L 36 47 C 36 48.644531 37.355469 50 39 50 L 43 50 C 44.644531 50 46 48.644531 46 47 L 46 44.03125 C 46.617188 43.25 47 42.222656 47 41 L 47 24 L 48 24 C 49.09375 24 50 23.09375 50 22 L 50 14 C 50 12.90625 49.09375 12 48 12 L 47 12 L 47 9 C 47 6.355469 46.789063 4.191406 45.71875 2.53125 C 44.648438 0.871094 42.6875 0 40 0 Z M 12 2 L 40 2 C 42.3125 2 43.351563 2.542969 44.03125 3.59375 C 44.710938 4.644531 45 6.484375 45 9 L 45 41 C 45 42.386719 44.601563 42.933594 43.78125 43.375 C 42.960938 43.816406 41.585938 44 40 44 L 10 44 C 8.414063 44 7.039063 43.816406 6.21875 43.375 C 5.398438 42.933594 5 42.386719 5 41 L 5 8 C 5 5.484375 5.457031 4.109375 6.40625 3.28125 C 7.355469 2.453125 9.09375 2 12 2 Z M 15 3 C 13.90625 3 13 3.90625 13 5 L 13 7 C 13 8.09375 13.90625 9 15 9 L 36 9 C 37.09375 9 38 8.09375 38 7 L 38 5 C 38 3.90625 37.09375 3 36 3 Z M 15 5 L 36 5 L 36 7 L 15 7 Z M 11 10 C 9.832031 10 8.765625 10.296875 8.03125 11.03125 C 7.296875 11.765625 7 12.832031 7 14 L 7 26 C 7 27.167969 7.296875 28.234375 8.03125 28.96875 C 8.765625 29.703125 9.832031 30 11 30 L 39 29.9375 C 39.816406 29.9375 40.695313 29.625 41.5 29 C 42.304688 28.375 43 27.324219 43 26 L 43 14 C 43 12.832031 42.703125 11.765625 41.96875 11.03125 C 41.234375 10.296875 40.167969 10 39 10 Z M 11 12 L 39 12 C 39.832031 12 40.265625 12.203125 40.53125 12.46875 C 40.796875 12.734375 41 13.167969 41 14 L 41 26 C 41 26.675781 40.714844 27.070313 40.28125 27.40625 C 39.847656 27.742188 39.230469 27.9375 39 27.9375 L 11 28 C 10.167969 28 9.734375 27.796875 9.46875 27.53125 C 9.203125 27.265625 9 26.832031 9 26 L 9 14 C 9 13.167969 9.203125 12.734375 9.46875 12.46875 C 9.734375 12.203125 10.167969 12 11 12 Z M 2 14 L 3 14 L 3 22 L 2 22 Z M 47 14 L 48 14 L 48 22 L 47 22 Z M 11.5 33 C 9.027344 33 7 35.027344 7 37.5 C 7 39.972656 9.027344 42 11.5 42 C 13.972656 42 16 39.972656 16 37.5 C 16 35.027344 13.972656 33 11.5 33 Z M 38.5 33 C 36.027344 33 34 35.027344 34 37.5 C 34 39.972656 36.027344 42 38.5 42 C 40.972656 42 43 39.972656 43 37.5 C 43 35.027344 40.972656 33 38.5 33 Z M 11.5 35 C 12.890625 35 14 36.109375 14 37.5 C 14 38.890625 12.890625 40 11.5 40 C 10.109375 40 9 38.890625 9 37.5 C 9 36.109375 10.109375 35 11.5 35 Z M 38.5 35 C 39.890625 35 41 36.109375 41 37.5 C 41 38.890625 39.890625 40 38.5 40 C 37.109375 40 36 38.890625 36 37.5 C 36 36.109375 37.109375 35 38.5 35 Z M 6 45.4375 C 7.199219 45.890625 8.566406 46 10 46 L 12 46 L 12 47 C 12 47.5625 11.5625 48 11 48 L 7 48 C 6.4375 48 6 47.5625 6 47 Z M 44 45.4375 L 44 47 C 44 47.5625 43.5625 48 43 48 L 39 48 C 38.4375 48 38 47.5625 38 47 L 38 46 L 40 46 C 41.433594 46 42.800781 45.890625 44 45.4375 Z"/></svg>
